X: 14607
T: Gan Ainm
R: polka
M: 2/4
K: Dmajor
A, B,C|:D>C DB,|AF AB|AF AF|E2 A,B,/C/|
D/E/D/C/ DB,|AF A>B|AF EF|1 D2 A,B,/C/:|2 D2- D||
|:d|dc/d/ ed|BA FA|dc/d/ ed|B2 AB|
d2 ed|BA FB|AF EF|1 D2- D:|2 D||

